X:21
M:6/8
L:1/8
K:G
| BEB dEc | BeB dBA | Bdg bge | dfa gfd | 
| gfg dBd | gfg agf | faf dBe | dfa fed | 
bgb afa | gfe dBd | efa ged | ecc c3 :|| 

